app/javascript/src/images/viget-logo.svg

<svg width="130" height="43" viewBox="0 0 130 43" fill="none" xmlns="http://www.w3.org/2000/svg">
<path d="M21.8362 18.3245C21.8362 24.159 17.1309 28.8806 11.3166 28.8806C5.50216 28.8806 0.796875 24.159 0.796875 18.3245C0.796875 12.49 5.50216 7.76843 11.3166 7.76843C17.1309 7.76843 21.8362 12.49 21.8362 18.3245Z" fill="#1496BB"/>
<path d="M32.0871 6.82396C32.0871 9.85925 29.6336 12.3549 26.5751 12.3549C23.5503 12.3549 21.0632 9.89298 21.0632 6.82396C21.0632 3.78866 23.5167 1.29297 26.5751 1.29297C29.6 1.29297 32.0871 3.78866 32.0871 6.82396Z" fill="#F26D21"/>
<path d="M65.5826 8.73481C65.5826 8.26265 66.0195 7.82422 66.49 7.82422H68.2377C68.7082 7.82422 69.1452 8.26265 69.1452 8.73481V27.9584C69.1452 28.4305 68.7082 28.8689 68.2377 28.8689H66.49C66.0195 28.8689 65.5826 28.4305 65.5826 27.9584V8.73481Z" fill="white"/>
<path d="M104.569 7.79053C109.846 7.79053 113.913 11.7027 113.913 16.9976C113.913 17.3348 113.879 18.0094 113.812 18.3466C113.778 18.8525 113.375 19.1898 112.904 19.1898H98.2171C98.4188 22.5623 101.309 25.4627 105.309 25.4627C107.426 25.4627 109.039 24.7882 110.316 23.8101C110.753 23.4729 111.022 23.4729 111.358 23.7764C111.728 24.1137 112.131 24.5184 112.501 24.8556C112.938 25.2266 113.072 25.5639 112.602 26.1035C111.594 27.2502 108.905 28.9027 105.443 28.9027C99.3598 28.9027 94.6882 24.1137 94.6882 18.3466C94.6882 12.647 98.7213 7.79053 104.805 7.79053H104.569ZM110.451 16.4243C110.316 13.4901 107.426 10.8933 104.368 10.8933C101.007 10.8933 98.5196 13.5576 98.318 16.4243H110.451Z" fill="white"/>
<path d="M129.238 26.4407L127.793 24.9905C127.692 24.8894 127.323 24.7545 126.953 25.058C126.953 25.058 126.214 25.7325 124.97 25.7325C124.096 25.7325 123.39 25.429 122.886 24.8894C122.382 24.3498 122.046 23.5741 122.046 22.6298C122.046 22.5623 122.046 22.5286 122.012 22.4949V10.7246H127.323C127.86 10.7246 128.23 10.2862 128.23 9.81406V8.73484C128.23 8.19523 127.86 7.82425 127.323 7.82425H122.012V2.42817C122.012 1.95601 121.643 1.51758 121.139 1.51758L119.593 1.68621C119.122 1.75366 118.685 2.12464 118.685 2.5968V7.79052H116.164C115.627 7.79052 115.257 8.16151 115.257 8.70112V9.78033C115.257 10.2525 115.66 10.6909 116.164 10.6909H118.685V22.7647H118.719C118.752 24.2486 119.324 25.3953 119.66 25.9349C119.962 26.407 120.634 27.3513 121.676 28.0933C121.676 28.0933 121.71 28.127 121.744 28.127C122.248 28.4305 123.323 28.9027 125.004 28.9027C126.751 28.9027 128.23 28.2619 129.306 27.2164C129.406 27.1153 129.474 26.9466 129.474 26.8117C129.406 26.7105 129.339 26.5419 129.238 26.4407Z" fill="white"/>
<path d="M61.2134 7.82425H59.3313H59.096C58.6591 7.82425 58.3902 8.06033 58.2558 8.36386L51.6684 24.0462L45.1818 8.33014C45.0474 8.06033 44.7449 7.79053 44.3416 7.79053H44.1063H42.157C41.4176 7.79053 41.1487 8.26268 41.4176 8.90347L41.7537 9.71288L49.6518 27.9584C49.8199 28.3968 50.156 28.869 50.6601 28.869H51.6348H52.6094C53.08 28.869 53.4497 28.3631 53.6177 27.9584L61.5831 9.74661L61.9192 8.93719C62.2217 8.29641 61.9192 7.82425 61.2134 7.82425Z" fill="white"/>
<path d="M85.8154 28.9366H78.791C76.9761 28.9366 76.1023 27.655 76.1023 26.4409C76.1023 24.4848 78.2533 23.5068 78.2533 23.5068C78.2533 23.5068 80.5387 24.9233 83.2274 24.9233C88.4033 24.9233 91.8986 20.8425 91.8986 16.3907C91.8986 13.0519 89.8821 11.1295 89.8821 11.1295L92.5372 10.3875C92.8733 10.3538 93.0749 9.88167 93.0749 9.54441V8.70127C93.0749 8.16166 92.6716 7.75696 92.1339 7.75696H82.8577C77.7828 7.75696 74.5899 11.8377 74.5899 16.3907C74.5899 19.2911 76.1695 21.2809 76.1695 21.2809C76.1695 21.2809 72.9094 23.2032 72.9094 26.9131C72.9094 29.9484 75.1949 31.2299 76.472 31.5672V31.7021C75.9679 32.0056 73.6488 33.3209 73.6488 36.255C73.6488 39.4927 76.472 43.0001 83.0258 43.0001C88.941 43.0001 93.1422 39.1217 93.1422 35.0746C93.1422 30.8589 89.9157 28.9366 85.8154 28.9366ZM83.2274 10.9609C86.1514 10.9609 88.5377 13.3554 88.5377 16.2895C88.5377 19.2236 86.1514 21.6181 83.2274 21.6181C80.3034 21.6181 77.9172 19.2236 77.9172 16.2895C77.9172 13.3554 80.3034 10.9609 83.2274 10.9609ZM82.9922 39.8637C79.6649 39.8637 77.1442 38.1437 77.1442 35.7829C77.1442 32.8825 80.4043 32.0056 80.4043 32.0056H85.8154C89.2435 32.0056 89.5124 34.5688 89.5124 35.1758C89.546 38.0762 86.2187 39.8637 82.9922 39.8637Z" fill="white"/>
<path d="M65.3137 2.09098C65.3137 0.91059 66.2212 -5.14611e-07 67.3639 -5.14611e-07C68.5402 -5.14611e-07 69.4476 0.91059 69.4476 2.09098C69.4476 3.20393 68.5402 4.14824 67.3639 4.14824C66.2212 4.14824 65.3137 3.20393 65.3137 2.09098Z" fill="white"/>
</svg>

<svg width="130" height="43" fill="none" xmlns="http://www.w3.org/2000/svg"><path d="M21.836 18.325c0 5.834-4.705 10.556-10.52 10.556-5.814 0-10.52-4.722-10.52-10.556 0-5.835 4.706-10.557 10.52-10.557 5.815 0 10.52 4.722 10.52 10.556z" fill="#1496BB"/><path d="M32.087 6.824c0 3.035-2.453 5.53-5.512 5.53-3.025 0-5.512-2.461-5.512-5.53 0-3.035 2.454-5.531 5.512-5.531 3.025 0 5.512 2.496 5.512 5.531z" fill="#F26D21"/><path d="M65.583 8.735c0-.472.436-.91.907-.91h1.748c.47 0 .907.438.907.91v19.223c0 .473-.437.91-.907.91H66.49c-.47 0-.907-.438-.907-.91V8.735zM104.569 7.79c5.277 0 9.344 3.913 9.344 9.208 0 .337-.034 1.011-.101 1.349a.891.891 0 0 1-.908.843H98.217c.202 3.372 3.092 6.273 7.092 6.273 2.117 0 3.73-.675 5.007-1.653.437-.337.706-.337 1.042-.034.37.338.773.742 1.143 1.08.437.37.571.708.101 1.247-1.008 1.147-3.697 2.8-7.159 2.8-6.083 0-10.755-4.79-10.755-10.556 0-5.7 4.033-10.556 10.117-10.556h-.236zm5.882 8.634c-.135-2.934-3.025-5.53-6.083-5.53-3.361 0-5.848 2.664-6.05 5.53h12.133zM129.238 26.44l-1.445-1.45c-.101-.1-.47-.235-.84.068 0 0-.739.675-1.983.675-.874 0-1.58-.304-2.084-.844s-.84-1.315-.84-2.26c0-.067 0-.1-.034-.134v-11.77h5.311a.905.905 0 0 0 .907-.91v-1.08c0-.54-.37-.91-.907-.91h-5.311V2.427c0-.472-.369-.91-.873-.91l-1.546.168c-.471.068-.908.439-.908.91v5.195h-2.521c-.537 0-.907.37-.907.91v1.08c0 .471.403.91.907.91h2.521v12.074h.034a6.406 6.406 0 0 0 .941 3.17c.302.472.974 1.416 2.016 2.158 0 0 .034.034.068.034.504.303 1.579.776 3.26.776 1.747 0 3.226-.641 4.302-1.687.1-.1.168-.27.168-.404-.068-.102-.135-.27-.236-.371zM61.213 7.824h-2.117a.869.869 0 0 0-.84.54l-6.588 15.682L45.182 8.33c-.135-.27-.437-.54-.84-.54h-2.185c-.74 0-1.008.473-.74 1.113l.337.81 7.898 18.245c.168.439.504.911 1.008.911H52.61c.471 0 .84-.506 1.009-.91l7.965-18.212.336-.81c.303-.64 0-1.113-.706-1.113zM85.815 28.937h-7.024c-1.815 0-2.689-1.282-2.689-2.496 0-1.956 2.151-2.934 2.151-2.934s2.286 1.416 4.974 1.416c5.176 0 8.672-4.08 8.672-8.532 0-3.34-2.017-5.261-2.017-5.261l2.655-.743c.336-.033.538-.505.538-.843v-.843a.92.92 0 0 0-.941-.944h-9.276c-5.075 0-8.268 4.08-8.268 8.634 0 2.9 1.58 4.89 1.58 4.89s-3.26 1.922-3.26 5.632c0 3.035 2.285 4.317 3.562 4.654v.135c-.504.304-2.823 1.619-2.823 4.553 0 3.238 2.823 6.745 9.377 6.745 5.915 0 10.116-3.878 10.116-7.925 0-4.216-3.226-6.138-7.327-6.138zM83.227 10.96c2.924 0 5.31 2.394 5.31 5.329 0 2.934-2.386 5.328-5.31 5.328-2.924 0-5.31-2.394-5.31-5.328 0-2.935 2.386-5.33 5.31-5.33zm-.235 28.903c-3.327 0-5.848-1.72-5.848-4.081 0-2.9 3.26-3.777 3.26-3.777h5.411c3.428 0 3.697 2.563 3.697 3.17.034 2.9-3.293 4.688-6.52 4.688zM65.314 2.091c0-1.18.907-2.091 2.05-2.091 1.176 0 2.084.91 2.084 2.091a2.07 2.07 0 0 1-2.084 2.057 2.062 2.062 0 0 1-2.05-2.057z" fill="#fff"/></svg>
